logos/openjs-foundation.svg

<?xml version="1.0" encoding="UTF-8"?>
<svg width="512px" height="161px" viewBox="0 0 512 161" version="1.1" xmlns="http://www.w3.org/2000/svg" xmlns:xlink="http://www.w3.org/1999/xlink" preserveAspectRatio="xMidYMid">
    <title>OpenJS Fondation</title>
    <defs>
        <linearGradient x1="20.3935593%" y1="15.8494593%" x2="79.5710016%" y2="84.1511768%" id="OpenJS-linearGradient-1">
            <stop stop-color="#0075C9" offset="21.45%"></stop>
            <stop stop-color="#80BC00" offset="70.67%"></stop>
            <stop stop-color="#FDE021" offset="100%"></stop>
        </linearGradient>
    </defs>
    <g>
				<path d="M138.970697,39.9911991 L70.1510151,0.256025603 L69.690169,0 L69.2293229,0.256025603 L0.819281928,39.7863786 L0.460846085,39.9911991 L0,40.2472247 L0,120.741674 L0.460846085,120.9977 L69.2805281,160.732873 L69.7413741,160.988899 L70.2022202,160.732873 L138.10021,121.560956 L139.021902,121.048905 L139.482748,120.792879 L139.482748,40.2472247 L138.970697,39.9911991 Z M62.8286829,10.2922292 L45.9821982,39.4279428 L12.340434,39.4279428 L62.8286829,10.2922292 Z M43.2171217,44.2412241 L35.3315332,57.9129913 L11.6747675,44.2412241 L43.2171217,44.2412241 Z M37.0725073,64.4160416 L64.8768877,80.4944494 L37.0725073,96.5728573 L27.8043804,80.4944494 L37.0725073,64.4160416 Z M32.9760976,62.0606061 L25.0905091,75.7323732 L9.26812681,48.3888389 L32.9760976,62.0606061 Z M5.47894789,51.3587359 L22.3254325,80.4944494 L5.47894789,109.630163 L5.47894789,51.3587359 Z M25.0393039,85.3077308 L32.9248925,98.9794979 L9.26812681,112.651265 L25.0393039,85.3077308 Z M35.3315332,103.075908 L43.2171217,116.747675 L11.6747675,116.747675 L35.3315332,103.075908 Z M12.340434,121.560956 L45.9821982,121.560956 L62.8286829,150.69667 L12.340434,121.560956 Z M67.3347335,148.90449 L51.5635564,121.560956 L67.3347335,121.560956 L67.3347335,148.90449 Z M67.3347335,116.747675 L48.7472747,116.747675 L39.4791479,100.669267 L67.2835284,84.5908591 L67.2835284,116.747675 L67.3347335,116.747675 Z M67.3347335,76.3468347 L39.530353,60.2684268 L48.7984798,44.190019 L67.3347335,44.190019 L67.3347335,76.3468347 Z M67.3347335,39.4279428 L51.5635564,39.4279428 L67.3347335,12.0844084 L67.3347335,39.4279428 Z M106.455446,62.0606061 L130.112211,48.3888389 L114.341034,75.7323732 L106.455446,62.0606061 Z M111.575958,80.4944494 L102.307831,96.5728573 L74.5034503,80.4944494 L102.307831,64.4160416 L111.575958,80.4944494 Z M104.048805,57.9129913 L96.1632163,44.2412241 L127.705571,44.2412241 L104.048805,57.9129913 Z M127.039904,39.4279428 L93.3981398,39.4279428 L76.6028603,10.2922292 L127.039904,39.4279428 Z M72.0968097,12.0844084 L87.8679868,39.4279428 L72.0968097,39.4279428 L72.0968097,12.0844084 L72.0968097,12.0844084 Z M72.0968097,44.2412241 L90.6330633,44.2412241 L99.9011901,60.319632 L72.0968097,76.3980398 L72.0968097,44.2412241 Z M72.0968097,84.6420642 L99.9011901,100.720472 L90.6330633,116.747675 L72.0968097,116.747675 L72.0968097,84.6420642 Z M72.0968097,121.560956 L87.8679868,121.560956 L72.0968097,148.90449 L72.0968097,121.560956 Z M76.6028603,150.69667 L93.3981398,121.560956 L127.039904,121.560956 L76.6028603,150.69667 Z M96.1632163,116.747675 L104.048805,103.075908 L127.705571,116.747675 L96.1632163,116.747675 Z M106.455446,98.9282928 L114.341034,85.2565257 L130.112211,112.60006 L106.455446,98.9282928 Z M133.952595,109.630163 L117.106111,80.4944494 L133.952595,51.3587359 L133.952595,109.630163 Z" fill="url(#OpenJS-linearGradient-1)"></path>
				<path d="M243.838784,126.374237 L243.838784,147.214721 C243.838784,154.127413 247.064706,158.019002 253.567757,158.019002 C260.890089,158.019002 266.010601,153.10331 266.010601,145.320132 L266.010601,126.374237 L269.236524,126.374237 L269.236524,160.272027 L266.010601,160.272027 L266.113011,152.79608 C263.859986,157.865387 259.20032,160.988899 253.260526,160.988899 C245.682168,160.988899 240.612861,156.022002 240.612861,147.726773 L240.612861,126.374237 L243.838784,126.374237 Z M374.053405,125.657366 C381.017302,125.657366 386.240224,129.907391 386.240224,138.714671 L386.240224,160.323232 L383.014301,160.323232 L383.167917,155.10031 C381.017302,158.326233 377.279328,160.988899 371.441944,160.988899 C363.709971,160.988899 358.640664,157.40454 358.640664,150.594259 C358.640664,145.026727 362.697313,141.893183 367.794933,140.98868 L368.165207,140.927174 C368.289208,140.907965 368.413771,140.890047 368.538854,140.873417 L368.915621,140.82739 C369.609067,140.750085 370.316968,140.711671 371.032303,140.711671 L383.014301,140.711671 L383.014301,138.970697 C383.014301,131.341134 379.532353,128.422442 373.950995,128.422442 C368.779278,128.422442 365.29733,130.573057 362.890689,134.259826 L360.586459,132.621262 C363.40274,128.217622 368.216022,125.657366 374.053405,125.657366 Z M349.935794,100.310831 L349.935794,160.272027 L346.709871,160.272027 L346.863486,151.823182 C344.456846,157.046105 338.875488,160.937694 332.321232,160.937694 C322.643464,160.886489 315.577158,153.205721 315.577158,143.220722 C315.577158,133.235724 322.643464,125.606161 332.372437,125.606161 C339.285129,125.606161 344.252025,129.344134 346.709871,134.413441 L346.709871,100.310831 L349.935794,100.310831 Z M214.191019,125.606161 C224.073607,125.606161 231.70317,133.491749 231.70317,143.220722 C231.70317,152.949695 224.073607,160.886489 214.191019,160.886489 C204.308431,160.886489 196.525253,152.949695 196.525253,143.220722 C196.525253,133.491749 204.308431,125.606161 214.191019,125.606161 Z M456.544854,125.606161 C466.427443,125.606161 474.057006,133.491749 474.057006,143.220722 C474.057006,152.949695 466.427443,160.886489 456.544854,160.886489 C446.713471,160.886489 438.879088,152.949695 438.879088,143.220722 C438.879088,133.491749 446.662266,125.606161 456.544854,125.606161 Z M403.905991,114.443444 L403.905991,126.323032 L413.686169,126.323032 L413.686169,129.088109 L403.905991,129.088109 L403.905991,151.157516 C403.905991,156.124412 405.646965,157.967797 408.463246,157.967797 C410.555674,157.967797 411.758492,157.383196 412.716378,156.572149 L412.89889,156.412441 L412.89889,156.412441 L413.076324,156.247655 L413.076324,156.247655 L413.249718,156.078367 L413.249718,156.078367 L413.504508,155.817259 L413.504508,155.817259 L413.839784,155.458746 L413.839784,155.458746 L415.939194,157.455746 C415.873651,157.531529 415.807535,157.606657 415.740751,157.681061 L415.538296,157.902031 C415.504188,157.938475 415.469889,157.97472 415.435387,158.010758 L415.225846,158.224436 C413.7407,159.701839 411.855953,160.783977 408.691469,160.83351 L408.463246,160.835284 C404.162016,160.886489 400.680068,158.172617 400.680068,151.259926 L400.680068,129.088109 L395.354735,129.088109 L395.354735,126.323032 L400.680068,126.323032 L400.680068,114.443444 L403.905991,114.443444 Z M294.122212,125.657366 C301.70057,125.657366 306.718672,130.726673 306.718672,139.124312 L306.718672,160.272027 L303.492749,160.272027 L303.492749,139.687569 C303.492749,132.723672 300.266827,128.627263 293.712571,128.627263 C286.390239,128.627263 281.269727,133.440544 281.269727,141.326133 L281.269727,160.272027 L278.043804,160.272027 L278.043804,126.374237 L281.269727,126.374237 L281.167317,133.952595 C283.420342,128.832083 288.131213,125.657366 294.122212,125.657366 Z M499.40354,125.657366 C506.981898,125.657366 512,130.726673 512,139.124312 L512,160.272027 L508.774077,160.272027 L508.774077,139.687569 C508.774077,132.723672 505.548155,128.627263 498.993899,128.627263 C491.671567,128.627263 486.551055,133.440544 486.551055,141.326133 L486.551055,160.272027 L483.325133,160.272027 L483.325133,126.374237 L486.551055,126.374237 L486.448645,133.952595 C488.70167,128.832083 493.412541,125.657366 499.40354,125.657366 Z M429.150115,126.374237 L429.150115,160.272027 L425.924192,160.272027 L425.924192,126.374237 L429.150115,126.374237 Z M190.790279,103.792779 L190.790279,106.762676 L161.29613,106.762676 L161.29613,131.59716 L188.025203,131.59716 L188.025203,134.669467 L161.29613,134.669467 L161.29613,160.220822 L157.916592,160.220822 L157.916592,103.792779 L190.790279,103.792779 Z M214.191019,128.524852 C205.742174,128.524852 199.853585,134.823082 199.853585,143.220722 C199.853585,151.618362 205.742174,158.019002 214.191019,158.019002 C222.639864,158.019002 228.374837,151.618362 228.374837,143.220722 C228.374837,134.823082 222.639864,128.524852 214.191019,128.524852 Z M332.782078,128.524852 C324.384438,128.524852 319.007901,134.823082 319.007901,143.220722 C319.007901,151.618362 324.384438,158.019002 332.782078,158.019002 C341.333333,158.019002 346.965897,151.618362 346.965897,143.220722 C346.965897,134.823082 341.333333,128.524852 332.782078,128.524852 Z M383.014301,149.467747 L383.014301,143.323132 L371.265958,143.323908 L371.265958,143.323908 L370.916015,143.33014 C369.638077,143.364507 368.418873,143.526086 367.313607,143.832481 L367.015037,143.919647 C364.009141,144.842603 361.917792,146.891198 361.917792,150.440644 C361.917792,155.612361 365.29733,158.019002 371.80038,158.019002 C377.432943,158.019002 383.014301,154.690669 383.014301,149.467747 Z M456.59606,128.524852 C448.147215,128.524852 442.258626,134.823082 442.258626,143.220722 C442.258626,151.618362 448.147215,158.019002 456.59606,158.019002 C465.044904,158.019002 470.779878,151.618362 470.779878,143.220722 C470.779878,134.823082 465.044904,128.524852 456.59606,128.524852 Z M427.511551,108.964496 C428.945295,108.964496 430.276628,110.142214 430.276628,111.729573 C430.276628,113.327173 429.011029,114.389327 427.618871,114.441436 L427.511551,114.443444 C426.077808,114.494649 424.746475,113.419342 424.746475,111.729573 C424.746475,110.142214 426.077808,108.964496 427.511551,108.964496 Z" fill="#54565A"></path>
				<path d="M268.570857,28.1116112 C279.835984,28.1116112 288.950495,37.6357636 288.950495,50.8978898 C288.950495,64.160016 279.733573,73.8889889 268.366037,73.8889889 C261.043704,73.8889889 255.820782,70.3558356 253.311731,65.440144 L253.311731,95.1391139 L242.661066,95.1391139 L242.661066,29.0845085 L253.311731,29.0845085 L253.0045,37.2261226 C255.820782,31.7983798 261.043704,28.1116112 268.570857,28.1116112 Z M323.872387,28.1628163 C338.824282,28.1628163 347.273127,39.2231223 346.556256,54.6358636 L311.224722,54.6358636 C312.50485,60.9340934 317.113311,65.0305031 325.152515,65.0305031 C330.887489,65.0305031 335.086309,62.7262726 337.59536,60.319632 L343.739974,66.8226823 L343.417636,67.1396726 C343.309136,67.2445878 343.199571,67.3487435 343.088914,67.4521055 L342.753639,67.7597766 C338.746797,71.3715693 333.328709,73.940194 325.254925,73.940194 C310.20062,73.940194 300.471647,64.2112211 300.471647,51.0515052 C300.471647,37.9941994 310.712671,28.1628163 323.872387,28.1628163 Z M194.630663,0.921692169 C214.907891,0.921692169 231.242324,16.1808181 231.242324,37.4309431 C231.242324,58.629863 214.907891,73.940194 194.630663,73.940194 C174.19982,73.8889889 157.916592,58.629863 157.916592,37.4309431 C157.916592,16.2320232 174.19982,0.921692169 194.630663,0.921692169 Z M451.987599,1.89458946 L451.987599,53.09971 C451.987599,67.2323232 443.538754,73.8889889 431.607961,73.8889889 C422.325497,73.8889889 416.373905,69.6857449 412.77613,64.2104248 L412.534463,63.8351707 L412.534463,63.8351707 L412.300022,63.4561807 C411.992221,62.9484619 411.703506,62.4313311 411.433143,61.9069907 L420.445245,56.3768377 C420.51904,56.5093686 420.59319,56.6407035 420.667743,56.7707982 L420.892656,57.1573171 C421.156577,57.6038116 421.426019,58.0345702 421.70305,58.4476939 L421.942412,58.7974368 C421.982632,58.8549928 422.023018,58.9121777 422.063577,58.9689862 L422.309057,59.3052745 C424.455367,62.1798484 427.10191,64.0064006 431.09591,64.0064006 C437.035704,64.0064006 440.927293,61.190119 440.927293,52.9460946 L440.927293,1.89458946 L451.987599,1.89458946 Z M507.852385,12.2380238 L499.19872,17.5633563 C496.484848,12.8524852 493.361336,10.6506651 487.779978,10.6506651 C482.147415,10.6506651 478.563056,14.0814081 478.563056,18.8946895 C478.563056,22.4650829 479.92107,24.7234971 482.992032,26.7656023 L483.310252,26.972571 L483.310252,26.972571 L483.640365,27.1783044 C483.864423,27.3151051 484.096466,27.4512531 484.336602,27.5870897 L484.702892,27.7906537 L484.702892,27.7906537 L485.081407,27.9940067 L485.081407,27.9940067 L485.472229,28.1974048 C485.538397,28.2313225 485.60508,28.2652527 485.672282,28.2992008 L486.081721,28.5031466 L486.081721,28.5031466 L486.503676,28.7077778 L486.503676,28.7077778 L486.938229,28.9133502 C487.011709,28.947705 487.085717,28.9821096 487.160256,29.0165695 L487.613861,29.2240341 C487.690527,29.2587362 487.767726,29.2935043 487.845461,29.3283435 L488.318306,29.5382764 L488.318306,29.5382764 L488.80408,29.750175 L488.80408,29.750175 L493.412541,31.849585 L494.133851,32.1695174 C505.803648,37.4025345 512,43.0358556 512,54.2262226 C512,66.6690669 502.271027,73.8889889 488.906491,73.8889889 C475.439544,73.8889889 467.29793,67.2323232 463.355136,59.1931193 L472.469647,54.1750175 L472.794894,54.7065669 L472.794894,54.7065669 L473.015437,55.0566998 L473.015437,55.0566998 L473.239183,55.4032179 C473.276752,55.4606588 473.314463,55.5179409 473.35232,55.5750602 L473.58125,55.9157893 L473.58125,55.9157893 L473.813888,56.2524146 L473.813888,56.2524146 L474.050436,56.5847406 L474.050436,56.5847406 L474.291095,56.9125718 L474.291095,56.9125718 L474.536068,57.2357124 L474.536068,57.2357124 L474.785555,57.5539671 C477.849263,61.3955493 481.960213,64.1088109 488.752875,64.1088109 C495.972797,64.1088109 501.093309,60.2172217 501.093309,54.379838 C501.093309,50.4634903 499.387618,47.9200162 496.148587,45.7020451 L495.808053,45.4737181 C495.750388,45.4358427 495.692268,45.3980535 495.633696,45.3603448 L495.276832,45.135018 C495.156069,45.0602031 495.033501,44.9856678 494.909134,44.9113693 L494.530645,44.689141 C494.466667,44.652207 494.402241,44.6153214 494.337368,44.5784789 L493.942772,44.3578981 L493.942772,44.3578981 L493.537491,44.1380936 L493.537491,44.1380936 L493.121568,43.9188077 L493.121568,43.9188077 L492.695044,43.6997827 L492.695044,43.6997827 L492.257963,43.4807609 L492.257963,43.4807609 L491.810366,43.2614847 L491.810366,43.2614847 L491.352296,43.0416965 L491.352296,43.0416965 L490.883796,42.8211386 L490.883796,42.8211386 L490.404908,42.5995532 L490.404908,42.5995532 L489.66719,42.2646851 L489.66719,42.2646851 L484.451645,39.939994 L483.835911,39.662708 C483.734104,39.6163572 483.632706,39.5699346 483.531719,39.5234352 L482.930751,39.2434763 L482.930751,39.2434763 L482.339761,38.9614283 C482.14444,38.8670368 481.9508,38.7722561 481.758859,38.6770453 L481.188152,38.3900816 L481.188152,38.3900816 L480.627748,38.1002913 L480.627748,38.1002913 L480.077755,37.8074287 C472.360452,33.6356196 467.809981,28.4649265 467.809981,19.1507151 C467.809981,8.60246025 475.951595,1.0742373 487.779978,1.0742373 C497.20172,1.02410241 503.60236,4.60846085 507.852385,12.2380238 Z M383.475148,28.1116112 C393.20412,28.1116112 399.911991,35.0243024 399.911991,46.9038904 L399.911991,72.9160916 L389.363736,72.9160916 L389.363736,47.7743774 C389.363736,41.4761476 386.445045,37.8405841 380.249225,37.8405841 C373.336534,37.8405841 368.830483,42.0394039 368.830483,49.1057106 L368.830483,72.9160916 L358.282228,72.9160916 L358.282228,29.0845085 L368.830483,29.0845085 L368.625663,37.2261226 C371.339534,31.4911491 376.869687,28.1116112 383.475148,28.1116112 Z M265.652165,37.5333533 C257.920192,37.5333533 252.90209,42.9610961 252.90209,50.8978898 C252.90209,59.1419142 257.920192,64.569657 265.652165,64.569657 C273.332933,64.6208621 278.09501,59.1931193 278.09501,50.8978898 C278.09501,42.9610961 273.281728,37.5333533 265.652165,37.5333533 Z M194.579458,10.8554855 C179.729973,10.8554855 169.181718,22.2742274 169.181718,37.4309431 C169.181718,52.5876588 179.729973,64.0064006 194.579458,64.0064006 C209.428943,63.9551955 219.874787,52.5876588 219.874787,37.4309431 C219.874787,22.2742274 209.428943,10.8554855 194.579458,10.8554855 Z M324.026003,36.9188919 C317.215722,36.9188919 312.50485,40.6568657 311.275928,47.2623262 L335.956796,47.2623262 L335.895582,46.8931152 C334.87991,41.1409585 331.195786,36.9188919 324.026003,36.9188919 Z" fill="#54565A"></path>
    </g>
</svg>

<svg preserveAspectRatio="xMidYMid" viewBox="0 0 512 161" xmlns="http://www.w3.org/2000/svg">
  <defs>
    <linearGradient id="openjs-foundation_svg__a" x1="20.394%" x2="79.571%" y1="15.849%" y2="84.151%">
      <stop offset="21.45%" stop-color="#0075C9"/>
      <stop offset="70.67%" stop-color="#80BC00"/>
      <stop offset="100%" stop-color="#FDE021"/>
    </linearGradient>
  </defs>
  <path fill="url(#openjs-foundation_svg__a)" d="M138.97 39.991 70.152.256 69.691 0l-.462.256L.82 39.786l-.358.205-.461.256v80.495l.46.256 68.82 39.735.461.256.461-.256L138.1 121.56l.922-.512.46-.256V40.247l-.511-.256ZM62.83 10.292 45.982 39.428H12.34l50.49-29.136Zm-19.612 33.95-7.885 13.671-23.657-13.672h31.542Zm-6.144 20.174 27.804 16.078-27.804 16.079-9.269-16.079 9.269-16.078Zm-4.097-2.355-7.885 13.671L9.268 48.39l23.708 13.67ZM5.48 51.359l16.846 29.135L5.48 109.63V51.36Zm19.56 33.949 7.886 13.671-23.657 13.672L25.04 85.308Zm10.293 17.768 7.885 13.672H11.675l23.657-13.672ZM12.34 121.56h33.642l16.847 29.136L12.34 121.56Zm54.995 27.343L51.564 121.56h15.77v27.343Zm0-32.156H48.747l-9.268-16.079L67.284 84.59v32.157h.05Zm0-40.401L39.53 60.268l9.268-16.078h18.537v32.157Zm0-36.92H51.564l15.77-27.343v27.344Zm39.12 22.634 23.657-13.672-15.771 27.343-7.886-13.671Zm5.121 18.433-9.268 16.079-27.805-16.079 27.805-16.078 9.268 16.078Zm-7.527-22.581L96.163 44.24h31.543l-23.657 13.672Zm22.99-18.485H93.4L76.602 10.292l50.437 29.136ZM72.098 12.084l15.771 27.344H72.097V12.084Zm0 32.157h18.536l9.268 16.079-27.804 16.078V44.241Zm0 40.401L99.9 100.72l-9.268 16.028H72.097V84.642Zm0 36.919h15.771l-15.771 27.343v-27.343Zm4.506 29.136 16.795-29.136h33.642l-50.437 29.136Zm19.56-33.95 7.886-13.671 23.657 13.672H96.163Zm10.292-17.819 7.886-13.671 15.771 27.343-23.657-13.672Zm27.498 10.702-16.847-29.136 16.847-29.135v58.271Z"/>
  <path fill="#54565A" d="M243.839 126.374v20.84c0 6.913 3.226 10.805 9.729 10.805 7.322 0 12.443-4.916 12.443-12.699v-18.946h3.226v33.898h-3.226l.102-7.476c-2.253 5.07-6.913 8.193-12.852 8.193-7.579 0-12.648-4.967-12.648-13.262v-21.353h3.226Zm130.214-.717c6.964 0 12.187 4.25 12.187 13.058v21.608h-3.226l.154-5.223c-2.15 3.226-5.889 5.889-11.726 5.889-7.732 0-12.801-3.584-12.801-10.395 0-5.567 4.056-8.7 9.154-9.605l.37-.062c.124-.019.249-.037.374-.054l.377-.046a19.124 19.124 0 0 1 2.116-.115h11.982v-1.741c0-7.63-3.482-10.549-9.063-10.549-5.172 0-8.654 2.151-11.06 5.838l-2.305-1.639c2.817-4.403 7.63-6.964 13.467-6.964Zm-24.117-25.346v59.961h-3.226l.153-8.449c-2.406 5.223-7.988 9.115-14.542 9.115-9.678-.052-16.744-7.732-16.744-17.717s7.066-17.615 16.795-17.615c6.913 0 11.88 3.738 14.338 8.807v-34.102h3.226ZM214.19 125.606c9.883 0 17.512 7.886 17.512 17.615s-7.63 17.665-17.512 17.665c-9.883 0-17.666-7.936-17.666-17.665 0-9.73 7.783-17.615 17.666-17.615Zm242.354 0c9.882 0 17.512 7.886 17.512 17.615s-7.63 17.665-17.512 17.665c-9.832 0-17.666-7.936-17.666-17.665 0-9.73 7.783-17.615 17.666-17.615Zm-52.639-11.163v11.88h9.78v2.765h-9.78v22.07c0 4.966 1.741 6.81 4.557 6.81 2.093 0 3.295-.585 4.253-1.396l.183-.16.177-.164.174-.17.255-.26.335-.36 2.1 1.998c-.066.076-.132.15-.2.225l-.202.221-.103.109-.21.213c-1.484 1.478-3.369 2.56-6.534 2.61l-.228.001c-4.301.051-7.783-2.662-7.783-9.575v-22.172h-5.325v-2.765h5.325v-11.88h3.226Zm-109.784 11.214c7.579 0 12.597 5.07 12.597 13.467v21.148h-3.226v-20.584c0-6.964-3.226-11.06-9.78-11.06-7.323 0-12.443 4.813-12.443 12.698v18.946h-3.226v-33.898h3.226l-.103 7.579c2.253-5.12 6.964-8.296 12.955-8.296Zm205.282 0c7.578 0 12.596 5.07 12.596 13.467v21.148h-3.226v-20.584c0-6.964-3.226-11.06-9.78-11.06-7.322 0-12.443 4.813-12.443 12.698v18.946h-3.226v-33.898h3.226l-.102 7.579c2.253-5.12 6.964-8.296 12.955-8.296Zm-70.254.717v33.898h-3.226v-33.898h3.226Zm-238.36-22.581v2.97h-29.494v24.834h26.73v3.072h-26.73v25.552h-3.38v-56.428h32.874Zm23.401 24.732c-8.449 0-14.337 6.298-14.337 14.696 0 8.397 5.888 14.798 14.337 14.798s14.184-6.4 14.184-14.798-5.735-14.696-14.184-14.696Zm118.591 0c-8.398 0-13.774 6.298-13.774 14.696 0 8.397 5.376 14.798 13.774 14.798 8.551 0 14.184-6.4 14.184-14.798s-5.633-14.696-14.184-14.696Zm50.232 20.943v-6.145h-11.748l-.35.007c-1.278.035-2.497.196-3.602.502l-.299.088c-3.006.923-5.097 2.971-5.097 6.52 0 5.172 3.38 7.579 9.882 7.579 5.633 0 11.214-3.328 11.214-8.551Zm73.582-20.943c-8.449 0-14.337 6.298-14.337 14.696 0 8.397 5.888 14.798 14.337 14.798s14.184-6.4 14.184-14.798-5.735-14.696-14.184-14.696Zm-29.084-19.56c1.433 0 2.765 1.177 2.765 2.765 0 1.597-1.266 2.66-2.658 2.711l-.107.002c-1.434.052-2.766-1.024-2.766-2.713 0-1.588 1.332-2.766 2.766-2.766Z"/>
  <path fill="#54565A" d="M268.57 28.112c11.266 0 20.38 9.524 20.38 22.786 0 13.262-9.216 22.991-20.584 22.991-7.322 0-12.545-3.533-15.054-8.449v29.7h-10.65V29.084h10.65l-.308 8.141c2.817-5.428 8.04-9.114 15.567-9.114Zm55.302.05c14.952 0 23.401 11.061 22.684 26.474h-35.331c1.28 6.298 5.888 10.395 13.928 10.395 5.734 0 9.933-2.305 12.442-4.711l6.145 6.503-.322.317c-.109.105-.218.209-.33.312l-.334.308c-4.007 3.612-9.425 6.18-17.5 6.18-15.053 0-24.782-9.729-24.782-22.888 0-13.058 10.24-22.89 23.4-22.89ZM194.631.923c20.277 0 36.611 15.259 36.611 36.509 0 21.199-16.334 36.51-36.611 36.51-20.431-.052-36.714-15.311-36.714-36.51C157.917 16.232 174.2.92 194.63.92Zm257.357.973V53.1c0 14.132-8.45 20.789-20.38 20.789-9.283 0-15.234-4.203-18.832-9.679l-.242-.375-.234-.379a25.763 25.763 0 0 1-.867-1.549l9.012-5.53c.074.132.148.264.223.394l.225.386c.264.447.533.878.81 1.29l.24.35.12.172.246.336c2.146 2.875 4.793 4.701 8.787 4.701 5.94 0 9.831-2.816 9.831-11.06V1.895h11.06Zm55.864 10.343-8.653 5.325c-2.714-4.71-5.838-6.912-11.419-6.912-5.633 0-9.217 3.43-9.217 8.244 0 3.57 1.358 5.828 4.429 7.87l.318.208.33.205c.224.137.456.273.697.41l.366.203.378.203.391.203.2.102.41.204.422.205.434.205.222.104.454.207.231.104.473.21.486.212 4.609 2.1.72.32C505.804 37.403 512 43.036 512 54.226c0 12.443-9.729 19.663-23.094 19.663-13.466 0-21.608-6.657-25.55-14.696l9.114-5.018.325.532.22.35.224.346.113.172.23.34.232.337.236.333.241.328.245.323.25.318c3.063 3.842 7.174 6.555 13.967 6.555 7.22 0 12.34-3.892 12.34-9.73 0-3.916-1.705-6.459-4.944-8.677l-.34-.228a22.735 22.735 0 0 0-.175-.114l-.357-.225a26.68 26.68 0 0 0-.368-.224l-.378-.222a31.547 31.547 0 0 0-.194-.11l-.394-.221-.406-.22-.415-.22-.427-.218-.437-.22-.448-.219-.458-.22-.468-.22-.48-.221-.737-.335-5.215-2.325-.616-.277a78.305 78.305 0 0 1-.304-.14l-.601-.28-.591-.282c-.196-.094-.39-.189-.581-.284l-.57-.287-.561-.29-.55-.293c-7.718-4.171-12.268-9.342-12.268-18.656 0-10.549 8.142-18.077 19.97-18.077 9.422-.05 15.822 3.534 20.072 11.164ZM383.475 28.112c9.73 0 16.437 6.912 16.437 18.792v26.012h-10.548V47.774c0-6.298-2.919-9.933-9.115-9.933-6.912 0-11.419 4.198-11.419 11.265v23.81h-10.548V29.085h10.548l-.204 8.141c2.714-5.735 8.244-9.114 14.85-9.114Zm-117.823 9.421c-7.732 0-12.75 5.428-12.75 13.365 0 8.244 5.018 13.672 12.75 13.672 7.68.05 12.443-5.377 12.443-13.672 0-7.937-4.813-13.365-12.443-13.365ZM194.58 10.855c-14.849 0-25.397 11.42-25.397 26.576 0 15.157 10.548 26.575 25.397 26.575 14.85-.05 25.296-11.418 25.296-26.575S209.43 10.855 194.58 10.855ZM324.026 36.92c-6.81 0-11.521 3.738-12.75 10.343h24.68l-.06-.369c-1.016-5.752-4.7-9.974-11.87-9.974Z"/>
</svg>
